public/images/typescript.svg

<svg width="53" height="53" viewBox="0 0 53 53" fill="none" xmlns="http://www.w3.org/2000/svg">
<g id="Group 44">
<path id="Vector" d="M0.560913 0.572876H52.0189V52.0308H0.560913V0.572876Z" fill="#017ACB"/>
<path id="Vector_2" d="M25.2688 19.6284H27.7372V23.8898H21.0637V42.8488L20.8868 42.897C20.6456 42.9614 17.4697 42.9614 16.7862 42.889L16.2395 42.8408V23.8898H9.56604V19.6284L11.6806 19.6043C12.8385 19.5882 15.8134 19.5882 18.2898 19.6043C20.7662 19.6204 23.9019 19.6284 25.2688 19.6284V19.6284ZM44.1073 40.8387C43.1263 41.8759 42.0731 42.4548 40.3203 42.9292C39.5564 43.1383 39.4278 43.1463 37.7072 43.1383C35.9865 43.1302 35.8498 43.1302 35.0137 42.9131C32.8508 42.3583 31.1061 41.2729 29.9161 39.7372C29.5784 39.303 29.0236 38.4025 29.0236 38.2899C29.0236 38.2578 29.104 38.1854 29.2085 38.1372C29.3131 38.0889 29.5302 37.9523 29.707 37.8477C29.8839 37.7432 30.2055 37.5502 30.4226 37.4377C30.6397 37.3251 31.2669 36.9553 31.8136 36.6256C32.3604 36.2959 32.8588 36.0306 32.9151 36.0306C32.9714 36.0306 33.0759 36.1432 33.1563 36.2799C33.6388 37.0919 34.7644 38.1291 35.5604 38.4829C36.0509 38.692 37.1363 38.9251 37.6589 38.9251C38.1413 38.9251 39.0258 38.7161 39.5002 38.499C40.0067 38.2658 40.264 38.0327 40.5695 37.5663C40.7786 37.2367 40.8027 37.1482 40.7946 36.5211C40.7946 35.9422 40.7625 35.7814 40.6017 35.516C40.1514 34.7763 39.5404 34.3904 37.0639 33.2969C34.5071 32.1632 33.3573 31.4878 32.4247 30.5793C31.7332 29.9039 31.5965 29.719 31.1623 28.8747C30.5995 27.7893 30.5272 27.4355 30.5191 25.8194C30.5111 24.6857 30.5352 24.3159 30.6558 23.93C30.8246 23.3511 31.3714 22.2335 31.6206 21.952C32.1352 21.349 32.3201 21.1641 32.682 20.8666C33.7754 19.9661 35.48 19.3711 37.1122 19.3148C37.2971 19.3148 37.9082 19.347 38.479 19.3872C40.1193 19.5239 41.2369 19.9259 42.3143 20.7862C43.1263 21.4294 44.3565 22.941 44.2359 23.142C44.1555 23.2626 40.9474 25.4013 40.7384 25.4657C40.6097 25.5059 40.5213 25.4576 40.3444 25.2486C39.2509 23.938 38.8087 23.6566 37.7474 23.5923C36.9916 23.544 36.5896 23.6325 36.083 23.9702C35.5524 24.3239 35.2951 24.8626 35.2951 25.6104C35.3031 26.7039 35.7212 27.2184 37.2649 27.9823C38.2619 28.4727 39.1142 28.8747 39.1785 28.8747C39.275 28.8747 41.3414 29.9039 41.8801 30.2255C44.3887 31.6969 45.4098 33.2085 45.6751 35.8135C45.8681 37.7754 45.3133 39.5684 44.1073 40.8387V40.8387Z" fill="white"/>
</g>
</svg>

<svg xmlns="http://www.w3.org/2000/svg" width="53" height="53" fill="none"><path fill="#017ACB" d="M.56.573H52.02V52.03H.56V.573Z"/><path fill="#fff" d="M25.269 19.628h2.468v4.262h-6.673v18.959l-.177.048c-.241.064-3.417.064-4.1-.008l-.547-.048V23.89H9.566v-4.262l2.115-.024c1.158-.016 4.132-.016 6.609 0 2.476.016 5.612.024 6.979.024Zm18.838 21.21c-.98 1.038-2.034 1.617-3.787 2.091-.764.21-.892.217-2.613.21-1.72-.009-1.857-.009-2.693-.226-2.163-.555-3.908-1.64-5.098-3.176-.338-.434-.892-1.334-.892-1.447 0-.032.08-.105.184-.153.105-.048.322-.185.499-.29.177-.104.498-.297.716-.41.217-.112.844-.482 1.39-.811.547-.33 1.046-.595 1.102-.595.056 0 .16.112.241.249.483.812 1.608 1.85 2.404 2.203.49.209 1.576.442 2.099.442.482 0 1.367-.209 1.841-.426.507-.233.764-.466 1.07-.933.209-.33.233-.418.225-1.045 0-.579-.032-.74-.193-1.005-.45-.74-1.062-1.126-3.538-2.22-2.557-1.133-3.707-1.808-4.64-2.717-.69-.675-.828-.86-1.262-1.704-.563-1.086-.635-1.44-.643-3.056-.008-1.133.016-1.503.137-1.889.169-.579.715-1.697.965-1.978.514-.603.7-.788 1.061-1.085 1.093-.9 2.798-1.496 4.43-1.552.185 0 .796.032 1.367.072 1.64.137 2.758.539 3.835 1.4.812.642 2.042 2.154 1.922 2.355-.08.12-3.289 2.26-3.498 2.324-.128.04-.217-.008-.394-.217-1.093-1.311-1.535-1.592-2.597-1.657-.755-.048-1.157.04-1.664.378-.53.354-.788.893-.788 1.64.008 1.094.426 1.608 1.97 2.372.997.49 1.85.893 1.913.893.097 0 2.163 1.029 2.702 1.35 2.509 1.472 3.53 2.983 3.795 5.588.193 1.962-.362 3.755-1.568 5.026Z"/></svg>
